X:1
T:Cambridge (Harrison), SM
T:Ralph Harrison, 1784; arr by S. S. Wesley, 1872
T:Cambridge (Harrison), SM
T:Public Domain
C:Ralph Harrison, 1784; arr by S. S. Wesley, 1872
Z:Public Domain
%%score ( 1 2 ) ( 3 4 )
L:1/8
M:4/4
K:G
V:1 treble 
V:2 treble 
V:3 bass 
V:4 bass 
V:1
 [B,G]2 | [DB]2 (AG) [DA]2 (GF) | [DG]6 [DA]2 | [DB]2 [Dd]2 [Dc]2 [DB]2 | [DA]6 [A,D]2 | %5
 [B,G]2 (GF) E2 [DE]2 | [^CA]2 (AG) [DF]2 D2 | [CE]2 [Ec]2 [DB]2 [CA]2 | [B,G]6 |] %9
V:2
 x2 | x2 D2 x D2 x | x8 | x8 | x8 | x2 D2 E2 x2 | x2 E2 x D2 x | x8 | x6 |] %9
V:3
 [G,B,]2 | G,2 (A,B,) [D,C]2 (B,A,) | [G,,B,]6 [D,F,]2 | G,2 [B,,G,]2 [A,,F,]2 [G,,G,]2 | %4
 [D,F,]6 [D,F,]2 | [G,,G,]2 [B,,G,]2 [C,G,]2 [E,^G,]2 | [A,,A,]2 [^C,A,]2 [D,A,]2 [B,,G,]2 | %7
 [C,G,]2 [A,,G,]2 [D,G,]2 [D,F,]2 | [G,,G,]6 |] %9
V:4
 x2 | G,2 G,2 x D,2 x | x8 | G,2 x6 | x8 | x8 | x8 | x8 | x6 |] %9

